X: 25424
T: March Of Time, The
R: jig
M: 6/8
K: Adorian
|:aba a2g|b2a g3|~e3 efg|dBG GAB|
~c3~B3|~A3 ABc|e=fe dcB|~A3 A3:|
|:E2A A2B|c2B A2c|B3G2d|gcd B3|
~c3~B3|cdc BAG|e=fe dcB|A3A3:|

